X: 1
T: Muineira Del Sol
M: 6/8
L: 1/8
R: jig
K: Gmaj
D |:GBd BAG | B2 B B2 D | GBd BAG | A2 A A2 D |
GBd BAG | B2 B B2 d | fed cBA |1 G3 G2 D :|2 GBd g2 d ||
|: fff fed | cBc A2 c | ggg gag | f3 A2 B |
fff fed | cBc A2 c | ggg gdB |1 GBd g2 d :|2 G3 G2 D ||
